app/assets/images/payment_icons/ada.svg

<svg xmlns="http://www.w3.org/2000/svg" role="img" aria-labelledby="pi-ada" fill="none" viewBox="0 0 38 24" width="38" height="24"><title id="pi-ada">Cardano</title><path fill="#0033AD" d="M0 0h38v24H0z"/><path fill="#F5F5F5" d="M10.417 12.028a.396.396 0 1 0-.044.79.396.396 0 0 0 .044-.79Zm4.487-6.795a.397.397 0 1 0-.33-.722.397.397 0 0 0 .33.722ZM16.146 7.4a.611.611 0 1 0-.55-1.092.611.611 0 0 0 .55 1.092Zm-4.179 1.485a.504.504 0 1 0 .598-.81.504.504 0 0 0-.598.81Zm.743 2.917a.61.61 0 1 0 .001 0m-.678 4.112a.503.503 0 1 0 .453.897.503.503 0 0 0-.453-.897Zm2.377-5.377a.719.719 0 0 0 1.002-1.009.72.72 0 1 0-1.002 1.009Zm7.54-3.187a.612.612 0 1 0 .667-1.024.612.612 0 0 0-.667 1.024Zm1.254-2.162a.396.396 0 1 0 .466-.641.396.396 0 0 0-.466.641Zm-1.158 5.981a1.225 1.225 0 0 0-.14 2.444h.07a1.224 1.224 0 0 0 .07-2.444Zm-5.498-.714a1.225 1.225 0 1 0 2.195-1.086 1.225 1.225 0 0 0-2.195 1.086Zm9.599-1.572a.503.503 0 1 0-.453-.898.503.503 0 0 0 .453.898Zm-3.104.393a.72.72 0 1 0 .592 1.312.72.72 0 0 0-.592-1.312Zm-3.999-4.269A.504.504 0 1 0 19.1 4a.504.504 0 0 0-.056 1.007Zm-.005 3.17a.72.72 0 1 0 .126-1.435.72.72 0 0 0-.126 1.435Zm-3.9 7.346a.72.72 0 1 0-.648-1.286.72.72 0 0 0 .648 1.286Zm4.364-6.298a1.223 1.223 0 1 0 2.045 1.342 1.223 1.223 0 0 0-2.045-1.342Zm2.128 5.124a1.223 1.223 0 1 0-2.185 1.101 1.223 1.223 0 0 0 2.185-1.101Zm2.139-.09a.718.718 0 0 0-.997.207.723.723 0 0 0 .207.997.72.72 0 1 0 .79-1.204Zm2.344-1.839a.611.611 0 1 0-1.22-.07.611.611 0 0 0 1.22.07Zm1.693-.435a.396.396 0 1 0-.079.788.396.396 0 0 0 .079-.788Zm-1.594 3.925a.504.504 0 0 0-.552.842.503.503 0 0 0 .552-.841m-11.237 3.693a.395.395 0 1 0-.444.653.395.395 0 0 0 .444-.653Zm8.3-.038a.396.396 0 1 0 .004 0h-.004Zm-4.599-3.993a1.223 1.223 0 1 0-2.005-1.4 1.223 1.223 0 0 0 2.005 1.4Zm-2.447 1.878a.61.61 0 0 0-.94.636.612.612 0 0 0 .272.387.611.611 0 0 0 .669-1.023m2.854 2.343a.504.504 0 1 0-.084 1.004.504.504 0 0 0 .084-1.004Zm.005-3.168a.72.72 0 1 0-.15 1.433.72.72 0 0 0 .15-1.433Zm2.943.776a.613.613 0 1 0 .002 0h-.002Z"/><path fill="#F5F5F5" d="M10.417 12.028a.396.396 0 1 0-.044.79.396.396 0 0 0 .044-.79Zm4.565.309a1.227 1.227 0 0 0 1.153 1.295h.067a1.223 1.223 0 1 0-1.224-1.295h.004Z"/></svg>

<svg xmlns="http://www.w3.org/2000/svg" role="img" viewBox="0 0 38 24" width="38" height="24" aria-labelledby="pi-ada"><title id="pi-ada">Cardano</title><g clip-path="url(#a)"><path fill="#000" d="M35 0H3a2.946 2.946 0 0 0-3 3v18a3.01 3.01 0 0 0 3 3h32a2.95 2.95 0 0 0 3-3V3a3.01 3.01 0 0 0-3-3" opacity=".07"></path><path fill="#0033AD" d="M35 1a2.006 2.006 0 0 1 2 2v18a2.006 2.006 0 0 1-2 2H3a2.006 2.006 0 0 1-2-2V3a2.006 2.006 0 0 1 2-2z"></path><path fill="#F5F5F5" d="M10.417 12.028a.395.395 0 1 0-.044.789.395.395 0 0 0 .044-.789M14.982 12.337a1.227 1.227 0 0 0 1.153 1.295h.067a1.223 1.223 0 1 0-1.224-1.295z"></path><path fill="#F5F5F5" d="M10.417 12.028a.395.395 0 1 0-.044.789.395.395 0 0 0 .044-.789M14.904 5.233a.396.396 0 1 0-.361-.704.396.396 0 0 0 .361.704M16.146 7.4a.611.611 0 1 0-.55-1.092.611.611 0 0 0 .55 1.091M11.967 8.885a.504.504 0 1 0 .553-.841.504.504 0 0 0-.553.841M12.71 11.802a.61.61 0 1 0-.069 1.22.61.61 0 0 0 .07-1.22M12.033 15.914a.503.503 0 1 0 .454.898.503.503 0 0 0-.454-.898M14.41 10.537a.72.72 0 1 0 .789-1.203.72.72 0 0 0-.789 1.203M21.95 7.35a.612.612 0 1 0 .667-1.024.612.612 0 0 0-.667 1.025M23.204 5.188a.396.396 0 1 0 .433-.662.396.396 0 0 0-.433.662M22.046 11.169a1.225 1.225 0 0 0-.14 2.444h.07a1.224 1.224 0 0 0 .07-2.444M16.548 10.455a1.224 1.224 0 1 0 2.195-1.086 1.224 1.224 0 0 0-2.195 1.086M26.147 8.883a.504.504 0 1 0-.454-.9.504.504 0 0 0 .454.9M23.043 9.276a.72.72 0 1 0 .647 1.285.72.72 0 0 0-.647-1.285M19.044 5.007A.504.504 0 1 0 19.1 4a.504.504 0 0 0-.056 1.007M19.039 8.177a.72.72 0 1 0 .082-1.437.72.72 0 0 0-.082 1.437M15.139 15.523a.719.719 0 1 0-.647-1.285.719.719 0 0 0 .647 1.285M19.503 9.225a1.224 1.224 0 1 0 2.047 1.343 1.224 1.224 0 0 0-2.047-1.343M21.631 14.349a1.224 1.224 0 1 0-1.093 1.775 1.225 1.225 0 0 0 1.093-1.775M23.77 14.259a.72.72 0 1 0-.79 1.204.72.72 0 0 0 .79-1.204M26.114 12.42a.611.611 0 1 0-1.22-.07.611.611 0 0 0 1.22.07M27.807 11.985a.396.396 0 1 0-.045.79.396.396 0 0 0 .045-.79M26.213 15.91a.503.503 0 1 0-.552.842.503.503 0 0 0 .552-.841M14.976 19.604a.395.395 0 1 0-.434.66.395.395 0 0 0 .434-.66M23.276 19.566a.396.396 0 1 0 .004 0zM18.677 15.573a1.223 1.223 0 1 0-2.045-1.34 1.223 1.223 0 0 0 2.045 1.34M16.23 17.451a.611.611 0 1 0-.668 1.023.611.611 0 0 0 .669-1.023M19.085 19.794a.504.504 0 1 0-.058 1.006.504.504 0 0 0 .057-1.006M19.09 16.626a.72.72 0 1 0-.086 1.436.72.72 0 0 0 .086-1.436M22.033 17.402a.613.613 0 1 0 .002 0z"></path></g><defs><clipPath id="pi-a"><path fill="#fff" d="M0 0h38v24H0z"></path></clipPath></defs></svg>
